public/mdi/depth-up.svg

<svg width="24" height="24" xmlns="http://www.w3.org/2000/svg"><path d="m17 14-4 4h3v5h2v-5h3M7 14l-4 4h3v5h2v-5h3"/><g><path d="M20 8h2v2h-2c-1.38 0-2.74-.35-4-1-2.5 1.3-5.5 1.3-8 0-1.26.65-2.63 1-4 1H2V8h2c1.39 0 2.78-.47 4-1.33 2.44 1.71 5.56 1.71 8 0C17.22 7.53 18.61 8 20 8M20 2h2v2h-2c-1.38 0-2.74-.35-4-1-2.5 1.3-5.5 1.3-8 0-1.26.65-2.63 1-4 1H2V2h2c1.39 0 2.78-.47 4-1.33 2.44 1.71 5.56 1.71 8 0C17.22 1.53 18.61 2 20 2"/></g></svg>

<?xml version="1.0" encoding="UTF-8" standalone="no"?>
<svg
   width="24"
   height="24"
   version="1.1"
   id="svg8"
   sodipodi:docname="depth-up.svg"
   inkscape:version="1.1.1 (3bf5ae0d25, 2021-09-20)"
   xmlns:inkscape="http://www.inkscape.org/namespaces/inkscape"
   xmlns:sodipodi="http://sodipodi.sourceforge.net/DTD/sodipodi-0.dtd"
   xmlns="http://www.w3.org/2000/svg"
   xmlns:svg="http://www.w3.org/2000/svg">
  <defs
     id="defs12" />
  <sodipodi:namedview
     id="namedview10"
     pagecolor="#ffffff"
     bordercolor="#666666"
     borderopacity="1.0"
     inkscape:pageshadow="2"
     inkscape:pageopacity="0.0"
     inkscape:pagecheckerboard="0"
     showgrid="false"
     inkscape:zoom="34.708333"
     inkscape:cx="12"
     inkscape:cy="11.985594"
     inkscape:window-width="1920"
     inkscape:window-height="1019"
     inkscape:window-x="0"
     inkscape:window-y="0"
     inkscape:window-maximized="1"
     inkscape:current-layer="svg8" />
  <path
     d="m17 14-4 4h3v5h2v-5h3M7 14l-4 4h3v5h2v-5h3"
     id="path2"
     style="fill:#ffffff" />
  <g
     id="g6"
     style="fill:#ffffff">
    <path
       d="m 20,8 h 2 v 2 H 20 C 18.62,10 17.26,9.65 16,9 13.5,10.3 10.5,10.3 8,9 6.74,9.65 5.37,10 4,10 H 2 V 8 h 2 c 1.39,0 2.78,-0.47 4,-1.33 2.44,1.71 5.56,1.71 8,0 C 17.22,7.53 18.61,8 20,8 m 0,-6 h 2 V 4 H 20 C 18.62,4 17.26,3.65 16,3 13.5,4.3 10.5,4.3 8,3 6.74,3.65 5.37,4 4,4 H 2 V 2 h 2 c 1.39,0 2.78,-0.47 4,-1.33 2.44,1.71 5.56,1.71 8,0 C 17.22,1.53 18.61,2 20,2"
       id="path4"
       style="fill:#ffffff" />
  </g>
</svg>
